icon/pk/sapling.svg

<svg viewBox="0 0 48 48" fill="none" xmlns="http://www.w3.org/2000/svg" height="1em" width="1em">
  <path d="M26.9999 8.00001C22.3136 12.6863 23.0351 21.035 23.0351 21.035C23.0351 21.035 31.3136 21.6863 35.9999 17C40.6862 12.3137 40.0057 4.03509 40.0057 4.03509C40.0057 4.03509 31.6862 3.31372 26.9999 8.00001Z" fill="#2F88FF"/>
  <path d="M23.0351 21.035L30.9999 13.0702M23.0351 21.035C23.0351 21.035 22.3136 12.6863 26.9999 8.00001C31.6862 3.31372 40.0057 4.03509 40.0057 4.03509C40.0057 4.03509 40.6862 12.3137 35.9999 17C31.3136 21.6863 23.0351 21.035 23.0351 21.035Z" stroke="black" stroke-width="4" stroke-linecap="round" stroke-linejoin="round"/>
  <path d="M20.0001 21C23.8492 24.8434 22.9712 31.9711 22.9712 31.9711C22.9712 31.9711 15.8492 32.8434 12.0001 29C8.15094 25.1566 9.03226 18.0289 9.03226 18.0289C9.03226 18.0289 16.151 17.1566 20.0001 21Z" fill="#2F88FF"/>
  <path d="M22.9712 31.9711L16.0001 25M22.9712 31.9711C22.9712 31.9711 23.8492 24.8434 20.0001 21C16.151 17.1566 9.03226 18.0289 9.03226 18.0289C9.03226 18.0289 8.15094 25.1566 12.0001 29C15.8492 32.8434 22.9712 31.9711 22.9712 31.9711Z" stroke="black" stroke-width="4" stroke-linecap="round" stroke-linejoin="round"/>
  <path d="M23 4V44" stroke="black" stroke-width="4" stroke-linecap="round" stroke-linejoin="round"/>
</svg>

<svg width="48" height="48" fill="none" xmlns="http://www.w3.org/2000/svg"><path d="M27 8c-4.686 4.686-3.965 13.035-3.965 13.035S31.314 21.686 36 17s4.006-12.965 4.006-12.965S31.686 3.314 27 8Z" fill="#2F88FF"/><path d="M23.035 21.035 31 13.07m-7.965 7.965S22.314 12.686 27 8s13.006-3.965 13.006-3.965S40.686 12.314 36 17s-12.965 4.035-12.965 4.035Z" stroke="#000" stroke-width="4" stroke-linecap="round" stroke-linejoin="round"/><path d="M20 21c3.85 3.843 2.971 10.971 2.971 10.971s-7.122.872-10.97-2.971c-3.85-3.843-2.969-10.971-2.969-10.971S16.151 17.157 20 21Z" fill="#2F88FF"/><path d="M22.971 31.971 16.001 25m6.97 6.971s.878-7.128-2.97-10.971c-3.85-3.843-10.969-2.971-10.969-2.971S8.151 25.157 12 29c3.85 3.843 10.971 2.971 10.971 2.971ZM23 4v40" stroke="#000" stroke-width="4" stroke-linecap="round" stroke-linejoin="round"/></svg>
